images/bug-icons8-hammer.svg

<svg height="512pt" viewBox="0 0 512 512" width="512pt" xmlns="http://www.w3.org/2000/svg"><path d="m251.625.0625c-26.625 0-53.25 10.125-73.5 30.40625-3.15625 3.125-3.15625 8.1875 0 11.3125l81.09375 81.09375c8.0625 8.15625 10 17.78125 10.9375 27.21875l3.625 26.78125-254.0625 238.25c-15.59375 15.59375-15.59375 41 0 56.59375l22.625 22.59375c7.78125 7.78125 18 11.6875 28.21875 11.6875 10.28125 0 20.625-3.9375 28.53125-11.875l239.875-255.78125 7.625-3.625c9.875-4.71875 21.71875-2.71875 29.5 5.03125 3.03125 3.03125 4.6875 7.0625 4.6875 11.34375 0 4.25-1.65625 8.28125-4.6875 11.28125-3.03125 3.03125-4.6875 7.0625-4.6875 11.34375s1.65625 8.28125 4.6875 11.28125l16.96875 17c7.8125 7.78125 18.03125 11.6875 28.28125 11.6875s20.5-3.90625 28.28125-11.6875l45.25-45.25c15.59375-15.59375 15.625-41 0-56.59375l-16.96875-16.9375c-6.21875-6.25-16.375-6.25-22.625 0-6.21875 6.21875-16.40625 6.21875-22.625 0-3.03125-3.03125-4.6875-7.0625-4.6875-11.34375 0-4.25 1.65625-8.28125 4.6875-11.28125 3.03125-3.03125 4.71875-7.0625 4.71875-11.34375s-1.6875-8.28125-4.71875-11.28125l-107.46875-107.5c-20.28125-20.28125-46.90625-30.40625-73.5625-30.40625zm3.78125 16.0625c21.28125.875 42.28125 9.4375 58.46875 25.65625l107.5 107.46875c-6.0625 6.0625-9.40625 14.09375-9.40625 22.625 0 8.5625 3.34375 16.59375 9.40625 22.625 4.125 4.15625 9.15625 6.78125 14.4375 8.1875l-40.21875 40.21875c-1.4375-5.40625-4.125-10.40625-8.1875-14.4375-8.03125-8.0625-18.78125-12.3125-29.65625-12.3125-6.125 0-12.28125 1.34375-18.03125 4.09375l-3.90625 1.875-45.96875-46-3.75-27.90625c-1.09375-10.84375-3.84375-24.8125-15.53125-36.625l-52.40625-52.40625c21.90625-16.40625 53.1875-14.6875 73.09375 5.1875l34.15625 34.1875c1.5625 1.5625 3.625 2.34375 5.6875 2.34375 2.03125 0 4.09375-.78125 5.65625-2.34375 3.125-3.125 3.125-8.1875 0-11.3125l-34.1875-34.1875c-13.59375-13.5625-31.6875-21.0625-50.9375-21.0625-16.53125 0-32.1875 5.5625-44.875 15.75l-11.40625-11.375c17.25-14.40625 38.78125-21.15625 60.0625-20.25zm98.3125 91.40625c-2.03125 0-4.09375.78125-5.65625 2.34375-3.125 3.15625-3.125 8.1875 0 11.34375l22.375 22.375c1.5625 1.5625 3.59375 2.34375 5.65625 2.34375s4.09375-.78125 5.65625-2.34375c3.125-3.125 3.125-8.1875 0-11.3125l-22.375-22.40625c-1.5625-1.5625-3.625-2.34375-5.65625-2.34375zm-71.625 83.46875 40.9375 40.9375-21.90625 23.34375-42.375-42.375zm184.53125 3.5 16.96875 17c9.34375 9.34375 9.34375 24.5625 0 33.90625l-45.28125 45.28125c-9.0625 9.0625-24.84375 9.0625-33.9375 0l-16.96875-16.96875zm-219.5625 29.375 43.09375 43.09375-202.5625 216.03125c-9.375 9.375-24.5625 9.375-33.9375 0l-22.625-22.625c-9.375-9.34375-9.375-24.59375-.1875-33.75zm-6.71875 30.5c-2.03125 0-4.09375.78125-5.65625 2.375-3.125 3.125-3.125 8.15625 0 11.28125l11.3125 11.34375c1.53125 1.53125 3.59375 2.34375 5.625 2.34375 2.0625 0 4.125-.8125 5.65625-2.34375 3.15625-3.15625 3.15625-8.1875 0-11.34375l-11.28125-11.28125c-1.59375-1.59375-3.625-2.375-5.65625-2.375zm-28.3125 28.28125c-2.03125 0-4.0625.8125-5.65625 2.375-3.125 3.125-3.125 8.1875 0 11.3125l11.34375 11.28125c1.53125 1.5625 3.59375 2.375 5.65625 2.375 2.03125 0 4.09375-.8125 5.625-2.375 3.15625-3.125 3.15625-8.15625 0-11.28125l-11.28125-11.3125c-1.59375-1.5625-3.625-2.375-5.6875-2.375zm-28.28125 28.3125c-2.03125 0-4.0625.75-5.625 2.3125-3.15625 3.15625-3.15625 8.1875 0 11.34375l11.28125 11.28125c1.5625 1.5625 3.625 2.34375 5.6875 2.34375 2.03125 0 4.09375-.78125 5.65625-2.34375 3.125-3.125 3.125-8.15625 0-11.28125l-11.34375-11.34375c-1.5625-1.5625-3.59375-2.3125-5.65625-2.3125zm-28.25 28.28125c-2.0625 0-4.09375.75-5.65625 2.34375-3.15625 3.125-3.15625 8.1875 0 11.28125l11.28125 11.34375c1.5625 1.53125 3.625 2.3125 5.65625 2.3125 2.0625 0 4.125-.78125 5.6875-2.3125 3.125-3.15625 3.125-8.21875 0-11.34375l-11.34375-11.28125c-1.5625-1.59375-3.59375-2.34375-5.625-2.34375zm-28.3125 28.28125c-2.03125 0-4.09375.78125-5.65625 2.34375-3.125 3.125-3.125 8.1875 0 11.3125l11.3125 11.3125c1.5625 1.5625 3.59375 2.34375 5.65625 2.34375s4.09375-.78125 5.65625-2.34375c3.125-3.125 3.125-8.1875 0-11.3125l-11.3125-11.3125c-1.5625-1.5625-3.625-2.34375-5.65625-2.34375zm-28.28125 28.28125c-2.03125 0-4.09375.78125-5.65625 2.34375-3.125 3.125-3.125 8.1875 0 11.3125l11.3125 11.3125c1.5625 1.5625 3.59375 2.34375 5.65625 2.34375s4.09375-.78125 5.65625-2.34375c3.125-3.125 3.125-8.1875 0-11.3125l-11.3125-11.3125c-1.5625-1.5625-3.625-2.34375-5.65625-2.34375zm-28.28125 28.28125c-2.03125 0-4.09375.78125-5.65625 2.34375-3.125 3.125-3.125 8.1875 0 11.3125l11.3125 11.34375c1.5625 1.53125 3.59375 2.3125 5.65625 2.3125s4.09375-.78125 5.65625-2.3125c3.125-3.125 3.125-8.1875 0-11.34375l-11.3125-11.3125c-1.5625-1.5625-3.625-2.34375-5.65625-2.34375zm0 0" fill="#003e6b"/></svg>

<?xml version="1.0" encoding="UTF-8"?>
<svg xmlns="http://www.w3.org/2000/svg" xmlns:xlink="http://www.w3.org/1999/xlink" width="512pt" height="512pt" viewBox="0 0 512 512" version="1.1">
<g id="surface1359832">
<path style=" stroke:none;fill-rule:nonzero;fill:rgb(0%,24.313726%,41.960785%);fill-opacity:1;" d="M 251.625 0.0625 C 225 0.0625 198.375 10.1875 178.125 30.46875 C 174.96875 33.59375 174.96875 38.65625 178.125 41.78125 L 259.21875 122.875 C 267.28125 131.03125 269.21875 140.65625 270.15625 150.09375 L 273.78125 176.875 L 19.71875 415.125 C 4.125 430.71875 4.125 456.125 19.71875 471.71875 L 42.34375 494.3125 C 50.125 502.09375 60.34375 506 70.5625 506 C 80.84375 506 91.1875 502.0625 99.09375 494.125 L 338.96875 238.34375 L 346.59375 234.71875 C 356.46875 230 368.3125 232 376.09375 239.75 C 379.125 242.78125 380.78125 246.8125 380.78125 251.09375 C 380.78125 255.34375 379.125 259.375 376.09375 262.375 C 373.0625 265.40625 371.40625 269.4375 371.40625 273.71875 C 371.40625 278 373.0625 282 376.09375 285 L 393.0625 302 C 400.875 309.78125 411.09375 313.6875 421.34375 313.6875 C 431.59375 313.6875 441.84375 309.78125 449.625 302 L 494.875 256.75 C 510.46875 241.15625 510.5 215.75 494.875 200.15625 L 477.90625 183.21875 C 471.6875 176.96875 461.53125 176.96875 455.28125 183.21875 C 449.0625 189.4375 438.875 189.4375 432.65625 183.21875 C 429.625 180.1875 427.96875 176.15625 427.96875 171.875 C 427.96875 167.625 429.625 163.59375 432.65625 160.59375 C 435.6875 157.5625 437.375 153.53125 437.375 149.25 C 437.375 144.96875 435.6875 140.96875 432.65625 137.96875 L 325.1875 30.46875 C 304.90625 10.1875 278.28125 0.0625 251.625 0.0625 Z M 255.40625 16.125 C 276.6875 17 297.6875 25.5625 313.875 41.78125 L 421.375 149.25 C 415.3125 155.3125 411.96875 163.34375 411.96875 171.875 C 411.96875 180.4375 415.3125 188.46875 421.375 194.5 C 425.5 198.65625 430.53125 201.28125 435.8125 202.6875 L 395.59375 242.90625 C 394.15625 237.5 391.46875 232.5 387.40625 228.46875 C 379.375 220.40625 368.625 216.15625 357.75 216.15625 C 351.625 216.15625 345.46875 217.5 339.71875 220.25 L 335.8125 222.125 L 289.84375 176.125 L 286.09375 148.21875 C 285 137.375 282.25 123.40625 270.5625 111.59375 L 218.15625 59.1875 C 240.0625 42.78125 271.34375 44.5 291.25 64.375 L 325.40625 98.5625 C 326.96875 100.125 329.03125 100.90625 331.09375 100.90625 C 333.125 100.90625 335.1875 100.125 336.75 98.5625 C 339.875 95.4375 339.875 90.375 336.75 87.25 L 302.5625 53.0625 C 288.96875 39.5 270.875 32 251.625 32 C 235.09375 32 219.4375 37.5625 206.75 47.75 L 195.34375 36.375 C 212.59375 21.96875 234.125 15.21875 255.40625 16.125 Z M 353.71875 107.53125 C 351.6875 107.53125 349.625 108.3125 348.0625 109.875 C 344.9375 113.03125 344.9375 118.0625 348.0625 121.21875 L 370.4375 143.59375 C 372 145.15625 374.03125 145.9375 376.09375 145.9375 C 378.15625 145.9375 380.1875 145.15625 381.75 143.59375 C 384.875 140.46875 384.875 135.40625 381.75 132.28125 L 359.375 109.875 C 357.8125 108.3125 355.75 107.53125 353.71875 107.53125 Z M 282.09375 191 L 323.03125 231.9375 L 301.125 255.28125 L 258.75 212.90625 Z M 466.625 194.5 L 483.59375 211.5 C 492.9375 220.84375 492.9375 236.0625 483.59375 245.40625 L 438.3125 290.6875 C 429.25 299.75 413.46875 299.75 404.375 290.6875 L 387.40625 273.71875 Z M 247.0625 223.875 L 290.15625 266.96875 L 87.59375 483 C 78.21875 492.375 63.03125 492.375 53.65625 483 L 31.03125 460.375 C 21.65625 451.03125 21.65625 435.78125 30.84375 426.625 Z M 240.34375 254.375 C 238.3125 254.375 236.25 255.15625 234.6875 256.75 C 231.5625 259.875 231.5625 264.90625 234.6875 268.03125 L 246 279.375 C 247.53125 280.90625 249.59375 281.71875 251.625 281.71875 C 253.6875 281.71875 255.75 280.90625 257.28125 279.375 C 260.4375 276.21875 260.4375 271.1875 257.28125 268.03125 L 246 256.75 C 244.40625 255.15625 242.375 254.375 240.34375 254.375 Z M 212.03125 282.65625 C 210 282.65625 207.96875 283.46875 206.375 285.03125 C 203.25 288.15625 203.25 293.21875 206.375 296.34375 L 217.71875 307.625 C 219.25 309.1875 221.3125 310 223.375 310 C 225.40625 310 227.46875 309.1875 229 307.625 C 232.15625 304.5 232.15625 299.46875 229 296.34375 L 217.71875 285.03125 C 216.125 283.46875 214.09375 282.65625 212.03125 282.65625 Z M 183.75 310.96875 C 181.71875 310.96875 179.6875 311.71875 178.125 313.28125 C 174.96875 316.4375 174.96875 321.46875 178.125 324.625 L 189.40625 335.90625 C 190.96875 337.46875 193.03125 338.25 195.09375 338.25 C 197.125 338.25 199.1875 337.46875 200.75 335.90625 C 203.875 332.78125 203.875 327.75 200.75 324.625 L 189.40625 313.28125 C 187.84375 311.71875 185.8125 310.96875 183.75 310.96875 Z M 155.5 339.25 C 153.4375 339.25 151.40625 340 149.84375 341.59375 C 146.6875 344.71875 146.6875 349.78125 149.84375 352.875 L 161.125 364.21875 C 162.6875 365.75 164.75 366.53125 166.78125 366.53125 C 168.84375 366.53125 170.90625 365.75 172.46875 364.21875 C 175.59375 361.0625 175.59375 356 172.46875 352.875 L 161.125 341.59375 C 159.5625 340 157.53125 339.25 155.5 339.25 Z M 127.1875 367.53125 C 125.15625 367.53125 123.09375 368.3125 121.53125 369.875 C 118.40625 373 118.40625 378.0625 121.53125 381.1875 L 132.84375 392.5 C 134.40625 394.0625 136.4375 394.84375 138.5 394.84375 C 140.5625 394.84375 142.59375 394.0625 144.15625 392.5 C 147.28125 389.375 147.28125 384.3125 144.15625 381.1875 L 132.84375 369.875 C 131.28125 368.3125 129.21875 367.53125 127.1875 367.53125 Z M 98.90625 395.8125 C 96.875 395.8125 94.8125 396.59375 93.25 398.15625 C 90.125 401.28125 90.125 406.34375 93.25 409.46875 L 104.5625 420.78125 C 106.125 422.34375 108.15625 423.125 110.21875 423.125 C 112.28125 423.125 114.3125 422.34375 115.875 420.78125 C 119 417.65625 119 412.59375 115.875 409.46875 L 104.5625 398.15625 C 103 396.59375 100.9375 395.8125 98.90625 395.8125 Z M 70.625 424.09375 C 68.59375 424.09375 66.53125 424.875 64.96875 426.4375 C 61.84375 429.5625 61.84375 434.625 64.96875 437.75 L 76.28125 449.09375 C 77.84375 450.625 79.875 451.40625 81.9375 451.40625 C 84 451.40625 86.03125 450.625 87.59375 449.09375 C 90.71875 445.96875 90.71875 440.90625 87.59375 437.75 L 76.28125 426.4375 C 74.71875 424.875 72.65625 424.09375 70.625 424.09375 Z M 70.625 424.09375 "/>
</g>
</svg>
